mappFramework/Logical/mappView/Widgets/AxisControlWidgetLib/Resources/Media/AxisControl/GearEnabled.svg

<?xml version="1.0" encoding="utf-8"?>
<!-- Generator: Adobe Illustrator 25.0.1, SVG Export Plug-In . SVG Version: 6.00 Build 0)  -->
<svg version="1.1"
	 id="svg8" inkscape:version="1.0 (4035a4fb49, 2020-05-01)" xmlns:cc="http://creativecommons.org/ns#" xmlns:dc="http://purl.org/dc/elements/1.1/" xmlns:inkscape="http://www.inkscape.org/namespaces/inkscape" xmlns:rdf="http://www.w3.org/1999/02/22-rdf-syntax-ns#" xmlns:sodipodi="http://sodipodi.sourceforge.net/DTD/sodipodi-0.dtd" xmlns:svg="http://www.w3.org/2000/svg"
	 xmlns="http://www.w3.org/2000/svg" xmlns:xlink="http://www.w3.org/1999/xlink" x="0px" y="0px" viewBox="0 0 25 21"
	 style="enable-background:new 0 0 25 21;" xml:space="preserve">
<style type="text/css">
	.standstill_st0{fill:#FFFFFF;}
	.standstill_st1{fill:#00C800;}
</style>

<g id="Ebene_3" transform="translate(0,0)">
	<path id="rect2660-7-4-0-8" inkscape:connector-curvature="0" sodipodi:nodetypes="ccsccccsscccsc" class="standstill_st0" d="M11.2,0.6
		c-0.3,0-0.8,0.1-1.6,0.3C5.5,2.1,10,2.5,7,5.5c-3,3-3.6-1.4-4.6,2.7c-1,4,1.6,0.4,2.8,4.4c1.2,4-3,2.3,0.1,5.2
		c3.1,2.9,1.2-1.1,5.4-0.1c4.2,1,0.6,3.7,4.7,2.5c4.1-1.2-0.4-1.6,2.6-4.5s3.6,1.4,4.6-2.7c1-4-1.6-0.4-2.8-4.4
		c-1.2-4,3-2.3-0.1-5.2c-3.1-2.9-1.2,1.1-5.4,0.1C10.9,2.6,12.6,0.7,11.2,0.6z"/>
</g>

<g id="Ebene_2">
	<path id="path2893-48-0" inkscape:connector-curvature="0" class="standstill_st1" d="M12.5,7.7c-1.6,0-2.8,1.3-2.8,2.8c0,0,0,0,0,0
		c0,1.6,1.3,2.8,2.8,2.8c0,0,0,0,0,0c1.6,0,2.8-1.3,2.8-2.8c0,0,0,0,0,0C15.3,8.9,14.1,7.7,12.5,7.7z"/>
</g>

</svg>

<?xml version="1.0" encoding="UTF-8" standalone="no"?>
<!-- Generator: Adobe Illustrator 25.0.1, SVG Export Plug-In . SVG Version: 6.00 Build 0)  -->

<svg
   version="1.1"
   id="svg8"
   inkscape:version="1.2.1 (9c6d41e410, 2022-07-14)"
   x="0px"
   y="0px"
   viewBox="0 0 30 30"
   xml:space="preserve"
   sodipodi:docname="GearEnabled.svg"
   width="30"
   height="30"
   xmlns:inkscape="http://www.inkscape.org/namespaces/inkscape"
   xmlns:sodipodi="http://sodipodi.sourceforge.net/DTD/sodipodi-0.dtd"
   xmlns="http://www.w3.org/2000/svg"
   xmlns:svg="http://www.w3.org/2000/svg"><defs
   id="defs857" /><sodipodi:namedview
   id="namedview855"
   pagecolor="#ffffff"
   bordercolor="#666666"
   borderopacity="1.0"
   inkscape:showpageshadow="2"
   inkscape:pageopacity="0.0"
   inkscape:pagecheckerboard="0"
   inkscape:deskcolor="#d1d1d1"
   showgrid="false"
   inkscape:zoom="16.869548"
   inkscape:cx="-3.3195911"
   inkscape:cy="7.9433073"
   inkscape:window-width="1920"
   inkscape:window-height="1017"
   inkscape:window-x="2626"
   inkscape:window-y="-8"
   inkscape:window-maximized="1"
   inkscape:current-layer="svg8" />
<style
   type="text/css"
   id="style848">
	.standstill_st0{fill:#FFFFFF;}
	.standstill_st1{fill:#00C800;}
</style>



<g
   id="g980"
   transform="matrix(1.3560433,0,0,1.3560433,-1.9505413,0.69258319)"><g
     id="Ebene_3">
	<path
   id="rect2660-7-4-0-8"
   inkscape:connector-curvature="0"
   sodipodi:nodetypes="ccsccccsscccsc"
   class="standstill_st0"
   d="M 11.2,0.6 C 10.9,0.6 10.4,0.7 9.6,0.9 5.5,2.1 10,2.5 7,5.5 4,8.5 3.4,4.1 2.4,8.2 c -1,4 1.6,0.4 2.8,4.4 1.2,4 -3,2.3 0.1,5.2 3.1,2.9 1.2,-1.1 5.4,-0.1 4.2,1 0.6,3.7 4.7,2.5 C 19.5,19 15,18.6 18,15.7 21,12.8 21.6,17.1 22.6,13 23.6,9 21,12.6 19.8,8.6 18.6,4.6 22.8,6.3 19.7,3.4 16.6,0.5 18.5,4.5 14.3,3.5 10.9,2.6 12.6,0.7 11.2,0.6 Z" />
</g><g
     id="Ebene_2">
	<path
   id="path2893-48-0"
   inkscape:connector-curvature="0"
   class="standstill_st1"
   d="m 12.5,7.7 c -1.6,0 -2.8,1.3 -2.8,2.8 0,0 0,0 0,0 0,1.6 1.3,2.8 2.8,2.8 0,0 0,0 0,0 1.6,0 2.8,-1.3 2.8,-2.8 0,0 0,0 0,0 0,-1.6 -1.2,-2.8 -2.8,-2.8 z" />
</g></g>

</svg>
